X:62
T:GB/7a/62 Yonder Stands a Lovely Creature
%%VWML:GB-7a-62-0
F:http://www.vwml.org/record/GB/7a/62
T:Version 1 of 2
C:Mr Martin (c. 60), Fletching, Sussex, II. 09 P:F.W. J(ekyll)
C:Transcribed by Simon Furey and Lewis Jones
L:1/4
M:4/4
I:linebreak $
K:Dmix
G G A B | d d c/B/ A | d A A F | G A E2 |$ E F/G/ A B | A D B, D | E F/G/ A B | "^(a)" A/G/ E D2 |]$"^(a) var." A E D2 |

